X:57
T:Mwynen Glan Teifi
M:2/4
L:1/4
Q:40
C:Trad. arr. J.T.
S:Ifor Ceri manuscript
R:Slow air
N:Compressed arrangement
K:G
E/2F/2 | G E F A | G3 F | G>G A c |
B3 B/2c/2 | d B c A | d3 c | B A G F | E3:||
B/2c/2 | d B c A | B A G A | B3 F|
| G>G A A | B3 B | c B A G | F3 G |
E/2F/2 G/2A/2 B c | d3 B | d c B G | F3 G |
B3 c | B>A G F | E3 ||
